icon-themes/sifr_svg/cmd/sc_insertcolumnsbefore.svg

<svg viewBox="0 0 16 16" xmlns="http://www.w3.org/2000/svg"><g fill="#555753"><path d="m4 0v.75c.00002.19898.0621.3979325.1875.5390625l1.8125 1.7109375h1l1.8125-1.7109375c.12547-.14113.1875-.3400925.1875-.5390625v-.75zm-2 2v1 3 1 3 1 3 1h13v-1-3-1-8h-4-1l-1.53125 1h1.53125v3 1 3 1 3h-3v-10h-1v2h-3v-3h1.5410156l-1.5410156-1zm9 1h3v3h-3zm-8 4h3v3h-3zm8 0h3v3h-3zm-8 4h3v3h-3zm8 0h3v3h-3z"/><path d="m8.46875 3-1.46875 1v10h3v-11z" opacity=".35"/></g></svg>

<svg xmlns="http://www.w3.org/2000/svg" viewBox="0 0 16 16">
 <path
     style="fill:#555753"
     d="M 4 0 L 4 0.75 C 4.00002 0.94898 4.0621 1.1479325 4.1875 1.2890625 L 6 3 L 7 3 L 8.8125 1.2890625 C 8.93797 1.1479325 9 0.94897 9 0.75 L 9 0 L 4 0 z M 2 2 L 2 3 L 2 6 L 2 7 L 2 10 L 2 11 L 2 14 L 2 15 L 15 15 L 15 14 L 15 11 L 15 10 L 15 2 L 11 2 L 10 2 L 8.46875 3 L 10 3 L 10 6 L 10 7 L 10 10 L 10 11 L 10 14 L 7 14 L 7 4 L 6 4 L 6 6 L 3 6 L 3 3 L 4.5410156 3 L 3 2 L 2 2 z M 11 3 L 14 3 L 14 6 L 11 6 L 11 3 z M 3 7 L 6 7 L 6 10 L 3 10 L 3 7 z M 11 7 L 14 7 L 14 10 L 11 10 L 11 7 z M 3 11 L 6 11 L 6 14 L 3 14 L 3 11 z M 11 11 L 14 11 L 14 14 L 11 14 L 11 11 z "
     />
 <path
     style="fill:#555753;opacity:0.35"
     d="M 8.46875 3 L 7 4 L 7 14 L 10 14 L 10 3 L 8.46875 3 z "
     />
 </svg>
